public/avatar/shoe/28.svg

<svg xmlns:xlink="http://www.w3.org/1999/xlink" height="38.3" width="36.05" xmlns="http://www.w3.org/2000/svg"><use height="15.85" transform="translate(9.25 11.95)" width="22.55" xlink:href="#a"/><defs><g id="a"><path d="M-4.75-1.3Q-2.2-2.7.95-2.35q1.8.15 3.4 1l-1.2.45q-.5 2.2-1.6 4L1.1 3l-.95-.1-2.25-.1L-.5-.35l-4.25-.95M5.4.75l1.85 3.7.05.25v.15q.3 2.35.1 2.65l-.1.15-1.7 1.4-2.65 1.3-3.55 1.1-.5.1-3.6.7q-4.9.6-8.45-.7l-.55-.3q-.25-.25-.35-3.3l.05.1-.05-.15.25.35.55.3q3.5 1.3 8.4.7l.1-.05 3.55-.65.6-.15h.05q3.45-.95 5.5-2l.9-.55L7.1 4.6l-.8-.35q-1-.55-2.05-.8L5.4.75m.2 6.4v1.9-1.9m-2.65 3.2v-.05q-.25-.9-.2-1.75-.05.85.2 1.75v.05m-7.7.05.05 1.85-.05-1.85m3.95-.9.2 1.95-.2-1.95" fill="#f39" fill-rule="evenodd" transform="translate(14.55 2.9)"/><path d="m-4.75-1.3 4.25.95-1.6 3.15q-4.65-.2-8.35 1.05l5.7-5.15m6.3 4.4q1.1-1.8 1.6-4l1.2-.45L5.4.75l-1.15 2.7-1.3-.2-1.4-.15" fill="#bcd2e9" fill-rule="evenodd" transform="translate(14.55 2.9)"/><path d="m-2.1 2.8 2.25.1.95.1.45.1Q.1 5.35-2.5 6.8l-1.3-1.4 1.7-2.6m6.35.65q1.05.25 2.05.8l.8.35-1.25 1.25-.9.55q-2.05 1.05-5.5 2 3.15-2.1 4.8-4.95" fill="#fe7abc" fill-rule="evenodd" transform="translate(14.55 2.9)"/><path d="M-14.05 7.9q.2-.8 1.1-1.85l2.45-2.2h.05Q-6.75 2.6-2.1 2.8l-1.7 2.6 1.3 1.4Q.1 5.35 1.55 3.1l1.4.15 1.3.2Q2.6 6.3-.55 8.4H-.6l-.6.15-3.55.65-.1.05q-4.9.6-8.4-.7l-.55-.3-.25-.35" fill="#fff" fill-rule="evenodd" transform="translate(14.55 2.9)"/><path d="M-14.05 7.95V7.9l.05.15-.05-.1" fill="#004566" fill-rule="evenodd" transform="translate(14.55 2.9)"/><path d="M4.35-1.35q-1.6-.85-3.4-1-3.15-.35-5.7 1.05l-5.7 5.15h-.05l-2.45 2.2q-.9 1.05-1.1 1.85l.05.15-.05-.1V7.9m18.4-9.25L5.4.75l1.85 3.7.05.25v.15q.3 2.35.1 2.65l-.1.15-1.7 1.4-2.65 1.3-3.55 1.1-.5.1-3.6.7q-4.9.6-8.45-.7l-.55-.3q-.25-.25-.35-3.3m16.8.6q-.05.85.2 1.75v.05m2.65-1.3v-1.9m-6.2 4.3L-.8 9.5m-3.9 2.75-.05-1.85" fill="none" stroke="#000" stroke-linecap="round" stroke-linejoin="round" transform="translate(14.55 2.9)"/></g></defs></svg>

<?xml version="1.0" encoding="UTF-8" standalone="no"?>
<svg xmlns:xlink="http://www.w3.org/1999/xlink" height="38.3px" width="36.05px" xmlns="http://www.w3.org/2000/svg">
  <g transform="matrix(1.0, 0.0, 0.0, 1.0, 23.8, 14.85)">
    <use height="15.85" transform="matrix(1.0, 0.0, 0.0, 1.0, -14.55, -2.9)" width="22.55" xlink:href="#shape0"/>
  </g>
  <defs>
    <g id="shape0" transform="matrix(1.0, 0.0, 0.0, 1.0, 14.55, 2.9)">
      <path d="M-4.75 -1.3 Q-2.2 -2.7 0.95 -2.35 2.75 -2.2 4.35 -1.35 L3.15 -0.9 Q2.65 1.3 1.55 3.1 L1.1 3.0 0.15 2.9 -2.1 2.8 -0.5 -0.35 -4.75 -1.3 M5.4 0.75 L7.25 4.45 7.3 4.7 7.3 4.85 Q7.6 7.2 7.4 7.5 L7.3 7.65 5.6 9.05 2.95 10.35 -0.6 11.45 -1.1 11.55 -4.7 12.25 Q-9.6 12.85 -13.15 11.55 L-13.7 11.25 Q-13.95 11.0 -14.05 7.95 L-14.0 8.05 -14.05 7.9 -13.8 8.25 -13.25 8.55 Q-9.75 9.85 -4.85 9.25 L-4.75 9.2 -1.2 8.55 -0.6 8.4 -0.55 8.4 Q2.9 7.45 4.95 6.4 L5.85 5.85 7.1 4.6 6.3 4.25 Q5.3 3.7 4.25 3.45 L5.4 0.75 M5.6 7.15 L5.6 9.05 5.6 7.15 M2.95 10.35 L2.95 10.3 Q2.7 9.4 2.75 8.55 2.7 9.4 2.95 10.3 L2.95 10.35 M-4.75 10.4 L-4.7 12.25 -4.75 10.4 M-0.8 9.5 L-0.6 11.45 -0.8 9.5" fill="#ff3399" fill-rule="evenodd" stroke="none"/>
      <path d="M-4.75 -1.3 L-0.5 -0.35 -2.1 2.8 Q-6.75 2.6 -10.45 3.85 L-4.75 -1.3 M1.55 3.1 Q2.65 1.3 3.15 -0.9 L4.35 -1.35 5.4 0.75 4.25 3.45 2.95 3.25 1.55 3.1" fill="#bcd2e9" fill-rule="evenodd" stroke="none"/>
      <path d="M-2.1 2.8 L0.15 2.9 1.1 3.0 1.55 3.1 Q0.1 5.35 -2.5 6.8 L-3.8 5.4 -2.1 2.8 M4.25 3.45 Q5.3 3.7 6.3 4.25 L7.1 4.6 5.85 5.85 4.95 6.4 Q2.9 7.45 -0.55 8.4 2.6 6.3 4.25 3.45" fill="#fe7abc" fill-rule="evenodd" stroke="none"/>
      <path d="M-14.05 7.9 Q-13.85 7.1 -12.95 6.05 L-10.5 3.85 -10.45 3.85 Q-6.75 2.6 -2.1 2.8 L-3.8 5.4 -2.5 6.8 Q0.1 5.35 1.55 3.1 L2.95 3.25 4.25 3.45 Q2.6 6.3 -0.55 8.4 L-0.6 8.4 -1.2 8.55 -4.75 9.2 -4.85 9.25 Q-9.75 9.85 -13.25 8.55 L-13.8 8.25 -14.05 7.9" fill="#ffffff" fill-rule="evenodd" stroke="none"/>
      <path d="M-14.05 7.95 L-14.05 7.9 -14.0 8.05 -14.05 7.95" fill="#004566" fill-rule="evenodd" stroke="none"/>
      <path d="M4.35 -1.35 Q2.75 -2.2 0.95 -2.35 -2.2 -2.7 -4.75 -1.3 L-10.45 3.85 -10.5 3.85 -12.95 6.05 Q-13.85 7.1 -14.05 7.9 L-14.0 8.05 -14.05 7.95 -14.05 7.9 M4.35 -1.35 L5.4 0.75 7.25 4.45 7.3 4.7 7.3 4.85 Q7.6 7.2 7.4 7.5 L7.3 7.65 5.6 9.05 2.95 10.35 -0.6 11.45 -1.1 11.55 -4.7 12.25 Q-9.6 12.85 -13.15 11.55 L-13.7 11.25 Q-13.95 11.0 -14.05 7.95 M2.75 8.55 Q2.7 9.4 2.95 10.3 L2.95 10.35 M5.6 9.05 L5.6 7.15 M-0.6 11.45 L-0.8 9.5 M-4.7 12.25 L-4.75 10.4" fill="none" stroke="#000000" stroke-linecap="round" stroke-linejoin="round" stroke-width="1.0"/>
    </g>
  </defs>
</svg>
